packages/tokens/icons/fullScreen/size24Px.svg

<svg viewBox="0 0 24 24" fill="none" xmlns="http://www.w3.org/2000/svg" width="1em" height="1em"><path d="M13.5 10.5L21.5 2.5M21.5 2.5V10.5M21.5 2.5L13.5 2.5" stroke="currentColor" stroke-linecap="round" stroke-linejoin="round"/><path d="M10.5 13.5L2.5 21.5M2.5 21.5L2.5 13.5M2.5 21.5L10.5 21.5" stroke="currentColor" stroke-linecap="round" stroke-linejoin="round"/></svg>

<svg xmlns="http://www.w3.org/2000/svg" fill="none" viewBox="0 0 24 24" width="1em" height="1em"><path stroke="currentColor" stroke-linecap="round" stroke-linejoin="round" d="m13.5 10.5 8-8m0 0v8m0-8h-8m-3 11-8 8m0 0v-8m0 8h8"/></svg>
